public/icons/technologies/redux.svg

<?xml version="1.0" encoding="utf-8"?><!-- Uploaded to: SVG Repo, www.svgrepo.com, Generator: SVG Repo Mixer Tools -->
<svg width="800px" height="800px" viewBox="0 0 32 32" fill="none" xmlns="http://www.w3.org/2000/svg">
<path d="M21.7868 21.556C22.8939 21.4433 23.7338 20.505 23.6956 19.3789C23.6575 18.253 22.703 17.3522 21.5577 17.3522H21.4814C20.2978 17.3897 19.3817 18.3656 19.4199 19.5291C19.4581 20.0921 19.6871 20.58 20.0307 20.9178C18.7327 23.4326 16.7475 25.2717 13.7698 26.8106C11.7464 27.8615 9.6468 28.2369 7.54715 27.9742C5.82918 27.749 4.49301 26.9984 3.65301 25.7596C2.43144 23.9205 2.31695 21.9312 3.34773 19.942C4.07312 18.5157 5.21828 17.4647 5.94367 16.9392C5.79098 16.4513 5.56187 15.6256 5.44738 15.0251C-0.0882044 18.9661 0.484491 24.2959 2.16426 26.8106C3.42402 28.6873 5.98187 29.8509 8.80691 29.8509C9.57039 29.8509 10.3339 29.7757 11.0975 29.5882C15.9841 28.6498 19.6872 25.7972 21.7868 21.556ZM28.5059 16.9018C25.6045 13.5613 21.3287 11.7222 16.4421 11.7222H15.8314C15.4878 11.0466 14.7624 10.5961 13.9607 10.5961H13.8843C12.7009 10.6337 11.7848 11.6095 11.8229 12.7731C11.8611 13.8991 12.8154 14.7999 13.9607 14.7999H14.037C14.8769 14.7624 15.6023 14.2369 15.9077 13.5237H16.5948C19.4963 13.5237 22.2449 14.3494 24.7265 15.9634C26.6352 17.202 28.0096 18.816 28.7731 20.7677C29.4221 22.3441 29.3839 23.883 28.6967 25.1967C27.6278 27.1859 25.8336 28.2744 23.4666 28.2744C21.9395 28.2744 20.4889 27.824 19.7253 27.4862C19.3054 27.8615 18.5418 28.462 18.0073 28.8375C19.649 29.5881 21.3287 30.001 22.9321 30.001C26.597 30.001 29.3076 28.0116 30.3384 26.0224C31.4454 23.8454 31.369 20.0921 28.5059 16.9018ZM9.1123 22.1939C9.15051 23.3199 10.1049 24.2206 11.2502 24.2206H11.3266C12.51 24.1832 13.4262 23.2073 13.388 22.0438C13.3499 20.9177 12.3954 20.017 11.2502 20.017H11.1739C11.0975 20.017 10.9829 20.017 10.9067 20.0544C9.3414 17.5022 8.69242 14.7248 8.92152 11.7221C9.0741 9.47006 9.83769 7.51828 11.1739 5.9043C12.2809 4.51555 14.4188 3.83996 15.8696 3.80252C19.9162 3.7274 21.634 8.68179 21.7486 10.6711C22.2449 10.7837 23.0848 11.0465 23.6575 11.2342C23.1993 5.15382 19.3817 2.00098 15.7169 2.00098C12.2809 2.00098 9.1123 4.44067 7.85242 8.04387C6.09637 12.8481 7.24164 17.4647 9.37949 21.1055C9.18871 21.3682 9.0741 21.7811 9.1123 22.194V22.1939Z" fill="#764ABC"/>
</svg>

<svg width="800" height="800" viewBox="0 0 32 32" fill="none" xmlns="http://www.w3.org/2000/svg"><path d="M21.787 21.556a2.114 2.114 0 0 0 1.909-2.177c-.039-1.126-.993-2.027-2.138-2.027h-.077a2.115 2.115 0 0 0-2.061 2.177c.038.563.267 1.051.61 1.389-1.297 2.515-3.283 4.354-6.26 5.893-2.024 1.05-4.123 1.426-6.223 1.163-1.718-.225-3.054-.976-3.894-2.214-1.222-1.84-1.336-3.829-.305-5.818.725-1.426 1.87-2.477 2.596-3.003a19.962 19.962 0 0 1-.497-1.914c-5.535 3.941-4.963 9.27-3.283 11.786 1.26 1.876 3.818 3.04 6.643 3.04.763 0 1.527-.075 2.29-.263 4.887-.938 8.59-3.79 10.69-8.032zm6.719-4.654c-2.901-3.34-7.177-5.18-12.064-5.18h-.61a2.102 2.102 0 0 0-1.871-1.126h-.077a2.115 2.115 0 0 0-2.061 2.177c.038 1.126.992 2.027 2.138 2.027h.076a2.15 2.15 0 0 0 1.87-1.276h.688c2.901 0 5.65.825 8.132 2.44 1.908 1.238 3.283 2.852 4.046 4.804.65 1.576.61 3.115-.076 4.429-1.07 1.989-2.863 3.077-5.23 3.077-1.527 0-2.978-.45-3.742-.788a22.52 22.52 0 0 1-1.718 1.351c1.642.751 3.322 1.164 4.925 1.164 3.665 0 6.376-1.99 7.406-3.979 1.107-2.177 1.031-5.93-1.832-9.12zM9.112 22.194c.039 1.126.993 2.027 2.138 2.027h.077a2.115 2.115 0 0 0 2.061-2.177c-.038-1.126-.993-2.027-2.138-2.027h-.076c-.076 0-.191 0-.267.037-1.566-2.552-2.215-5.33-1.985-8.332.152-2.252.916-4.204 2.252-5.818 1.107-1.388 3.245-2.064 4.696-2.101 4.046-.076 5.764 4.879 5.879 6.868.496.113 1.336.376 1.909.563-.459-6.08-4.276-9.233-7.941-9.233-3.436 0-6.605 2.44-7.865 6.043-1.756 4.804-.61 9.42 1.527 13.061-.19.263-.305.676-.267 1.089z" fill="#764ABC"/></svg>
